public/assets/logos/software/framer-motion.svg

<svg fill="none" height="10" viewBox="0 0 10 10" width="10" xmlns="http://www.w3.org/2000/svg" xmlns:xlink="http://www.w3.org/1999/xlink"><clipPath id="a"><path d="m0 0h10v10h-10z"/></clipPath><g clip-path="url(#a)"><path d="m10 0v5l-2.5 2.5-2.5 2.5-2.5-2.5 2.5-2.5z" fill="#59529d"/><path d="m10 5v5l-2.5-2.5z" fill="#5271b4"/><path d="m4.99998 4.99997-2.5 2.5-2.5000048 2.5v-10.00000052l2.5000048 2.50000052z" fill="#bb4b96"/></g></svg>

<svg width="10" height="10" viewBox="0 0 10 10" fill="none" xmlns="http://www.w3.org/2000/svg">
<g clip-path="url(#clip0_86_624)">
<path d="M10 0V5L7.5 7.5L5 10L2.5 7.5L5 5L10 0Z" fill="#59529D"/>
<path d="M10 5V10L7.5 7.5L10 5Z" fill="#5271B4"/>
<path d="M4.99998 4.99997L2.49998 7.49997L-2.47955e-05 9.99997V-3.05176e-05L2.49998 2.49997L4.99998 4.99997Z" fill="#BB4B96"/>
</g>
<defs>
<clipPath id="clip0_86_624">
<rect width="10" height="10" fill="white"/>
</clipPath>
</defs>
</svg>
